!!!COM: Bach, Johann Sebastian
!!!CDT: 1685/3//-1750/7/28/
!!!OTL@@DE: Wo Gott der Herr nicht bei uns haelt
!!!AGN: 4-Part Chorale
!!!SCT: BH 336
!!!SCT: BWV 258
**harm	**root	**kern	**kern	**kern	**kern
!	!	!bass	!tenor	!alto	!soprno
*	*Iorgan	*Iorgan	*Iorgan	*Iorgan	*Iorgan
*	*	*clefF4	*clefF2	*clefG2	*clefG2
*M4/4	*M4/4	*M4/4	*M4/4	*M4/4	*M4/4
*met(c)	*met(c)	*met(c)	*met(c)	*met(c)	*met(c)
*MM60	*MM60	*MM60	*MM60	*MM60	*MM60
*k[b-]	*k[b-]	*k[b-]	*k[b-]	*k[b-]	*k[b-]
*d:	*d:	*d:	*d:	*d:	*d:
*>[A,A,B]	*>[A,A,B]	*>[A,A,B]	*>[A,A,B]	*>[A,A,B]	*>[A,A,B]
*>A	*>A	*>A	*>A	*>A	*>A
i	4BB	4d	4f	8a	4ff
.	.	.	.	8b-	.
=1	=1	=1	=1	=1	=1
IIIb	4DD	4A	4f	4cc	4ff
VI	4GG	4B-	4f	4b-	8dd
.	.	.	.	.	8ee
IIIb	4DD	8A	4f	4cc	8ff
.	.	8G	.	.	8gg
III	4DD	4F	4f	4cc	4aa
=2	=2	=2	=2	=2	=2
V7b/-VII	4EE	4B	4f	4dd	4gg
V7/III	4AA	4c	4e	8cc	4gg
.	.	.	.	8b-	.
III;	4DD;	4F;	4c;	4a;	4ff;
viiob/-VII	4GG#	4D	4d	4b	4ff
=3	=3	=3	=3	=3	=3
-VII	4AA	4C	4g	4cc	4ee
iv	4EE	4G	4g	4b-	8dd
.	.	.	.	.	8ee
i	4BB	8d	8f	4a	4ff
.	.	8c	8e	.	.
iv	8EE	8B-	4d	8g	8gg
ic	8BB	8A	.	8a	8ff
=4	=4	=4	=4	=4	=4
ii7Db	4CC#	4G	4d	4b-	2ee
V7	4FF#	4A	8c#	4a	.
.	.	.	8g	.	.
i	4BB	4D;	4f;	4a;	4dd;
=:|!	=:|!	=:|!	=:|!	=:|!	=:|!
*>B	*>B	*>B	*>B	*>B	*>B
-VIIb	4AA	4E	4c	4cc	4gg
=5	=5	=5	=5	=5	=5
III	2DD	8F	4c	4cc	4aa
.	.	8G	.	.	.
.	.	8A	8c	4cc	4aa
.	.	8B-	8d	.	.
-VII	4AA	4c	4e	8g	8ee
.	.	.	.	8a	8ff
vii7o	4AA#	4c#	4e	4b-	4gg
!!linebreak: 2
=6	=6	=6	=6	=6	=6
i	4BB	4d	8f	4a	4ff
.	.	.	8e	.	.
vii7o/V	4EE#	4G#	4d	4b	4ff
V	4FF#	4A;	4a;	4cc#;	4ee;
i	4BB	8d	4a	4dd	4ff
.	.	8c	.	.	.
=7	=7	=7	=7	=7	=7
V/-VII	2EE	8B	4d	8dd	4gg
.	.	8A	.	8cc	.
.	.	4G	4g	4b	8dd
.	.	.	.	.	8ee
III	4DD	8A	8c	4a	4ff
.	.	8B	8d	.	.
-VII	4AA	4c	4e	4g	4ee
=8	=8	=8	=8	=8	=8
V7b/IV	4BB	4F#	4a	4cc	4dd
V7/-VII	4EE	4G	8g	4b	4dd
.	.	.	8f	.	.
-VII	4AA	4C;	4e;	4g;	4cc;
viiob/-VII	4GG#	4D	4f	4b	4ff
=9	=9	=9	=9	=9	=9
-VIIb	4AA	8E	4g	4cc	4ee
.	.	8F	.	.	.
V/-VII	4EE	4G	4g	8b	8dd
.	.	.	.	8cc#	8ee
i	4BB	8d	4a	4dd	4ff
.	.	8c	.	.	.
iv	8EE	8B-	4d	8dd	8gg
ic	8BB	8A	.	8a	8ff
=10	=10	=10	=10	=10	=10
ii7Db	4CC#	4G	4d	4b-	2ee
V7	4FF#	4A	4c#	8a	.
.	.	.	.	8g	.
i;	4BB;	4D;	4A;	4f;	4dd;
==	==	==	==	==	==
*-	*-	*-	*-	*-	*-
!!chor2scor: -l 2 -s 0.6 -o %b.pmx
!!!YEC: Copyright 2003 by Craig Stuart Sapp
!!!license: GNU General Public License (http://www.gnu.org/copyleft/gpl.html)
!!!SMA: 371 Bach Chorales, edited by Ludwig Erk, C.F. Peters
!!!PDT: 1850, 1865
!!!ONB: Harmony and Root analysis done manually by Craig Sapp
